icons/square/48/alva.svg

<svg version="1.1" viewBox="0 0 48 48" xmlns="http://www.w3.org/2000/svg">
 <defs>
  <linearGradient id="bg" x2="0" y1="1" y2="47" gradientUnits="userSpaceOnUse">
   <stop style="stop-color:#eee" offset="0"/>
   <stop style="stop-color:#e4e4e4" offset="1"/>
  </linearGradient>
 </defs>
 <path d="m1 43v0.25c0 2.216 1.784 4 4 4h38c2.216 0 4-1.784 4-4v-0.25c0 2.216-1.784 4-4 4h-38c-2.216 0-4-1.784-4-4zm0 0.5v0.5c0 2.216 1.784 4 4 4h38c2.216 0 4-1.784 4-4v-0.5c0 2.216-1.784 4-4 4h-38c-2.216 0-4-1.784-4-4z" style="opacity:.02"/>
 <path d="m1 43.25v0.25c0 2.216 1.784 4 4 4h38c2.216 0 4-1.784 4-4v-0.25c0 2.216-1.784 4-4 4h-38c-2.216 0-4-1.784-4-4z" style="opacity:.05"/>
 <path d="m1 43v0.25c0 2.216 1.784 4 4 4h38c2.216 0 4-1.784 4-4v-0.25c0 2.216-1.784 4-4 4h-38c-2.216 0-4-1.784-4-4z" style="opacity:.1"/>
 <rect x="1" y="1" width="46" height="46" rx="4" style="fill:url(#bg)"/>
 <path d="m1 39v4c0 2.216 1.784 4 4 4h38c2.216 0 4-1.784 4-4v-4c0 2.216-1.784 4-4 4h-38c-2.216 0-4-1.784-4-4z" style="opacity:.1"/>
 <path d="m26 10-11 16h7v12l11-16h-7zm-2 6.5v5.5h-2v2h-3z" style="opacity:.1;paint-order:normal"/>
 <path d="m22 21h11l-11 16z" style="fill:#f80869;paint-order:normal"/>
 <path d="m26 9-11 16h11zm-2 6.5v7.5h-5z" style="fill:#5d0ace;paint-order:normal"/>
 <path d="m24 21v2h-2v2h4v-4z" style="fill:#4c0549;paint-order:normal"/>
</svg>

<?xml version="1.0" encoding="UTF-8" standalone="no"?>
<svg
   xmlns:dc="http://purl.org/dc/elements/1.1/"
   xmlns:cc="http://creativecommons.org/ns#"
   xmlns:rdf="http://www.w3.org/1999/02/22-rdf-syntax-ns#"
   xmlns:svg="http://www.w3.org/2000/svg"
   xmlns="http://www.w3.org/2000/svg"
   xmlns:sodipodi="http://sodipodi.sourceforge.net/DTD/sodipodi-0.dtd"
   xmlns:inkscape="http://www.inkscape.org/namespaces/inkscape"
   version="1.1"
   viewBox="0 0 48 48"
   id="svg50"
   sodipodi:docname="alva.svg"
   inkscape:version="0.92.4 5da689c313, 2019-01-14">
  <metadata
     id="metadata54">
    <rdf:RDF>
      <cc:Work
         rdf:about="">
        <dc:format>image/svg+xml</dc:format>
        <dc:type
           rdf:resource="http://purl.org/dc/dcmitype/StillImage" />
        <dc:title></dc:title>
      </cc:Work>
    </rdf:RDF>
  </metadata>
  <sodipodi:namedview
     pagecolor="#ffffff"
     bordercolor="#666666"
     borderopacity="1"
     objecttolerance="10"
     gridtolerance="10"
     guidetolerance="10"
     inkscape:pageopacity="0"
     inkscape:pageshadow="2"
     inkscape:window-width="3840"
     inkscape:window-height="2018"
     id="namedview52"
     showgrid="false"
     inkscape:zoom="19.666667"
     inkscape:cx="-3.9537383"
     inkscape:cy="24"
     inkscape:window-x="0"
     inkscape:window-y="68"
     inkscape:window-maximized="1"
     inkscape:current-layer="svg50" />
  <defs
     id="defs34">
    <linearGradient
       id="bg"
       x2="0"
       y1="1"
       y2="47"
       gradientUnits="userSpaceOnUse">
      <stop
         style="stop-color:#eeeeee;stop-opacity:1"
         offset="0"
         id="stop29" />
      <stop
         style="stop-color:#e4e4e4;stop-opacity:1"
         offset="1"
         id="stop31" />
    </linearGradient>
  </defs>
  <path
     d="m1 43v0.25c0 2.216 1.784 4 4 4h38c2.216 0 4-1.784 4-4v-0.25c0 2.216-1.784 4-4 4h-38c-2.216 0-4-1.784-4-4zm0 0.5v0.5c0 2.216 1.784 4 4 4h38c2.216 0 4-1.784 4-4v-0.5c0 2.216-1.784 4-4 4h-38c-2.216 0-4-1.784-4-4z"
     style="opacity:.02"
     id="path36" />
  <path
     d="m1 43.25v0.25c0 2.216 1.784 4 4 4h38c2.216 0 4-1.784 4-4v-0.25c0 2.216-1.784 4-4 4h-38c-2.216 0-4-1.784-4-4z"
     style="opacity:.05"
     id="path38" />
  <path
     d="m1 43v0.25c0 2.216 1.784 4 4 4h38c2.216 0 4-1.784 4-4v-0.25c0 2.216-1.784 4-4 4h-38c-2.216 0-4-1.784-4-4z"
     style="opacity:.1"
     id="path40" />
  <rect
     x="1"
     y="1"
     width="46"
     height="46"
     rx="4"
     style="fill:url(#bg)"
     id="rect42" />
  <path
     d="m1 39v4c0 2.216 1.784 4 4 4h38c2.216 0 4-1.784 4-4v-4c0 2.216-1.784 4-4 4h-38c-2.216 0-4-1.784-4-4z"
     style="opacity:.1"
     id="path44" />
  <path
     style="opacity:0.1;fill:#000000;fill-opacity:1;stroke:none;stroke-width:0;stroke-linecap:round;stroke-linejoin:miter;stroke-miterlimit:4;stroke-dasharray:none;stroke-dashoffset:0;stroke-opacity:1;paint-order:normal"
     d="M 26,10 15,26 h 7 V 38 L 33,22 h -7 z m -2,6.5 V 22 h -2 v 2 h -3 z"
     id="path1420"
     inkscape:connector-curvature="0" />
  <path
     style="opacity:1;fill:#f80869;fill-opacity:1;stroke:none;stroke-width:0;stroke-linecap:round;stroke-linejoin:miter;stroke-miterlimit:4;stroke-dasharray:none;stroke-dashoffset:0;stroke-opacity:1;paint-order:normal"
     d="M 22,21 H 33 L 22,37 Z"
     id="rect819"
     inkscape:connector-curvature="0"
     sodipodi:nodetypes="cccc" />
  <path
     style="opacity:1;fill:#5d0ace;fill-opacity:1;stroke:none;stroke-width:0;stroke-linecap:round;stroke-linejoin:miter;stroke-miterlimit:4;stroke-dasharray:none;stroke-dashoffset:0;stroke-opacity:1;paint-order:normal"
     d="M 26,9.0000001 15,25 H 26 Z M 24,15.5 V 23 h -5 z"
     id="path841"
     inkscape:connector-curvature="0"
     sodipodi:nodetypes="cccccccc" />
  <path
     inkscape:connector-curvature="0"
     style="opacity:1;fill:#4c0549;fill-opacity:1;stroke:none;stroke-width:0;stroke-linecap:round;stroke-linejoin:miter;stroke-miterlimit:4;stroke-dasharray:none;stroke-dashoffset:0;stroke-opacity:1;paint-order:normal"
     d="m 24,21 v 2 h -2 v 2 h 4 v -4 z"
     id="path846" />
</svg>
